X:1
T:Polska
T:efter Alfred Petersson, Nttraby, Blekinge (SvL, Band 18, nr 291)
O:Nttraby, Blekinge
S:Svenska Ltar
N:Svenska Ltar, Band 18 nr 291
R:Polska
C:Alfred Petersson
M:3/4
L:1/16
Q:1/4=80
Z:Konverterad till abc-format av  Olle Paulsson 05-01-03
K:D
(dc)d.e (fe).d.e d4|(fe).f.g (ag).e.g f4|(fa).f.a (eg).e.g f2ed|(cd)ec d2A2 F2D2|
(dc)de (fe)de d4|(fe).f.g (ag).e.g f4|(fa).f.a (eg).e.g f2ed|(cd)ec d4 D4:|
|:a2^ga bagb a4|f2ef (=gf).e.d c2A2|(dc)de (fe)fg (ag)fe|(fe)dc d4 D4:|
